X: 2879
T: Barnacle Bill
R: hornpipe
M: 4/4
K: Gmajor
DE|:"G"G2G2 GABc|d2d2 d2ef|gage dedB|"D"AGEG A2DE|
[1 "G"G2G2 GABc|d2d2 d2ge|"D"fAfd "A"ege^c|"D"d2d2d2:|
[2 "G"gage edBd|dBAB G2e2|dedB GABc|"D"d2D2 "G"g2||
|:"G"g2 d2 "Am"cBAG|"G"d2d2 d2ga|g2d2 "Am"cBAG|"D7"c2"C"e2"D"d2"G"ga|
g2d2 "Am"cBAG|"G"d2d2 d2ge|"D"f2A2 "G"G2B2|"A"A2e2 "D"fed2:|
"G"g2d2 "Am"cBAG|"G"d2d2 d2ga|g2d2 "Am"cBAG|"D7"c2"C"e2"D"d2d2|
"G"g2d2 a2d2|"G"BcBAG2 "C"e2|"G"dedB GABc|"D"d2D2"G"G2||

